rospo-icon-theme-classic-common/64x64/apps/sgt-launcher.svg

<svg height="64" width="64" xmlns="http://www.w3.org/2000/svg"><path d="m2 17v12.599609c0 .7756.6247906 1.400391 1.4003906 1.400391h12.5996094 12.599609c.7756 0 1.400391-.624791 1.400391-1.400391v-12.599609h-14z" opacity=".2" transform="matrix(2 0 0 2 0 -1)"/><path d="m32 4h-25.2c-1.5512 0-2.8 1.2488-2.8 2.8v25.2h28z" fill="#8e8e8e"/><path d="m32 4h25.2c1.5512 0 2.8 1.2488 2.8 2.8v25.2h-28z" fill="#e4e4e4"/><path d="m32 60h-25.2c-1.5512 0-2.8-1.2488-2.8-2.8v-25.2h28z" fill="#45792a"/><path d="m32 60h25.2c1.5512 0 2.8-1.2488 2.8-2.8v-25.2h-28z" fill="#8e8e8e"/><circle cx="18" cy="19" opacity=".1" r="8"/><circle cx="18" cy="18" fill="#fff" r="8"/><path d="m14.070352 26.759076 4.018844 6.960842 4.018844 6.960843h-8.037688-8.037689l4.018844-6.960842z" opacity=".1" transform="matrix(1.2441388 0 0 1.4366077 .49453 -1.442295)"/><path d="m14.070352 26.759076 4.018844 6.960842 4.018844 6.960843h-8.037688-8.037689l4.018844-6.960842z" fill="#ffdd4c" transform="matrix(1.2441388 0 0 1.4366077 .49453 -2.442295)"/><path d="m44 11v6h-6v4h6v6h4v-6h6v-4h-6v-6z" opacity=".1"/><path d="m44 10v6h-6v4h6v6h4v-6h6v-4h-6v-6z" fill="#3f3f3f"/><path d="m50 41h4v16h-4z" opacity=".1"/><path d="m50 40h4v16h-4z" fill="#3f3f3f"/><path d="m14.070352 26.759076 4.018844 6.960842 4.018844 6.960843h-8.037688-8.037689l4.018844-6.960842z" opacity=".1" transform="matrix(0 .87089716 1.2929469 0 1.401934 31.74617)"/><path d="m14.070352 26.759076 4.018844 6.960842 4.018844 6.960843h-8.037688-8.037689l4.018844-6.960842z" fill="#e33939" transform="matrix(0 .87089716 1.2929469 0 1.401934 30.74617)"/><path d="m6.8007812 4c-1.5512 0-2.8007812 1.2495812-2.8007812 2.8007812v1c0-1.5511999 1.2495812-2.8007812 2.8007812-2.8007812h25.1992188 25.199219c1.5512 0 2.800781 1.2495812 2.800781 2.8007812v-1c0-1.5511999-1.249581-2.8007812-2.800781-2.8007812h-25.199219z" fill="#fff" opacity=".2"/></svg>

<svg xmlns="http://www.w3.org/2000/svg" width="64" height="64" version="1">
 <g transform="matrix(2,0,0,2,0,-1)">
  <path style="opacity:0.2" d="M 2,17 2,29.599609 C 2,30.375209 2.6247906,31 3.4003906,31 L 16,31 28.599609,31 C 29.375209,31 30,30.375209 30,29.599609 L 30,17 16,17 2,17 Z"/>
 </g>
 <path style="fill:#8e8e8e" d="M 32,4 6.8,4 C 5.2488,4 4,5.2488 4,6.8 L 4,32 32,32 Z"/>
 <path style="fill:#cccccc" d="M 32,4 57.2,4 C 58.7512,4 60,5.2488 60,6.8 L 60,32 32,32 Z"/>
 <path style="fill:#45792a" d="M 32,60 6.8,60 C 5.2488,60 4,58.7512 4,57.2 L 4,32 32,32 Z"/>
 <path style="fill:#8e8e8e" d="m 32,60 25.2,0 C 58.7512,60 60,58.7512 60,57.2 L 60,32 32,32 Z"/>
 <circle style="opacity:0.1" cx="18" cy="19" r="8"/>
 <circle style="fill:#ffffff" cx="18" cy="18" r="8"/>
 <path style="opacity:0.1" d="m 14.070352,26.759076 4.018844,6.960842 4.018844,6.960843 -8.037688,0 -8.037689,0 4.018844,-6.960842 z" transform="matrix(1.2441388,0,0,1.4366077,0.49452984,-1.4422954)"/>
 <path style="fill:#ffdd4c" d="m 14.070352,26.759076 4.018844,6.960842 4.018844,6.960843 -8.037688,0 -8.037689,0 4.018844,-6.960842 z" transform="matrix(1.2441388,0,0,1.4366077,0.49452984,-2.4422954)"/>
 <path style="opacity:0.1" d="m 44,11 0,6 -6,0 0,4 6,0 0,6 4,0 0,-6 6,0 0,-4 -6,0 0,-6 -4,0 z"/>
 <path style="fill:#3f3f3f" d="m 44,10 0,6 -6,0 0,4 6,0 0,6 4,0 0,-6 6,0 0,-4 -6,0 0,-6 -4,0 z"/>
 <rect style="opacity:0.1" width="4" height="16" x="50" y="41"/>
 <rect style="fill:#3f3f3f" width="4" height="16" x="50" y="40"/>
 <path style="opacity:0.1" d="m 14.070352,26.759076 4.018844,6.960842 4.018844,6.960843 -8.037688,0 -8.037689,0 4.018844,-6.960842 z" transform="matrix(0,0.87089716,1.2929469,0,1.4019344,31.74617)"/>
 <path style="fill:#e33939" d="m 14.070352,26.759076 4.018844,6.960842 4.018844,6.960843 -8.037688,0 -8.037689,0 4.018844,-6.960842 z" transform="matrix(0,0.87089716,1.2929469,0,1.4019344,30.74617)"/>
 <path style="opacity:0.2;fill:#ffffff" d="M 6.8007812 4 C 5.2495812 4 4 5.2495812 4 6.8007812 L 4 7.8007812 C 4 6.2495813 5.2495812 5 6.8007812 5 L 32 5 L 57.199219 5 C 58.750419 5 60 6.2495812 60 7.8007812 L 60 6.8007812 C 60 5.2495813 58.750419 4 57.199219 4 L 32 4 L 6.8007812 4 z"/>
</svg>
